build/bank/Avito.svg

<svg xmlns="http://www.w3.org/2000/svg" fill="none" viewBox="0 0 40 40" focusable="false"><path d="M0 0H40V40H0z"/><path fill="#F4F5F6" d="M1 12.4C1 10.1598 1 9.03969 1.43597 8.18404C1.81947 7.43139 2.43139 6.81947 3.18404 6.43597C4.03969 6 5.15979 6 7.4 6L32.6 6C34.8402 6 35.9603 6 36.816 6.43597C37.5686 6.81947 38.1805 7.43139 38.564 8.18404C39 9.03969 39 10.1598 39 12.4L39 27.6C39 29.8402 39 30.9603 38.564 31.816C38.1805 32.5686 37.5686 33.1805 36.816 33.564C35.9603 34 34.8402 34 32.6 34L7.4 34C5.15979 34 4.03969 34 3.18404 33.564C2.43139 33.1805 1.81947 32.5686 1.43597 31.816C1 30.9603 1 29.8402 1 27.6L1 12.4Z"/><path fill="#04E061" d="M16.141 28.4001C19.0355 28.4001 21.3821 26.0683 21.3821 23.1919 21.3821 20.3155 19.0355 17.9837 16.141 17.9837 13.2465 17.9837 10.8999 20.3155 10.8999 23.1919 10.8999 26.0683 13.2465 28.4001 16.141 28.4001ZM25.2329 27.7429C26.9821 27.7429 28.3999 26.3339 28.3999 24.5957 28.3999 22.8576 26.9821 21.4487 25.2329 21.4487 23.4839 21.4487 22.0659 22.8576 22.0659 24.5957 22.0659 26.3339 23.4839 27.7429 25.2329 27.7429Z"/><path fill="#FF4053" d="M25.2329 27.7429C26.9821 27.7429 28.3999 26.3339 28.3999 24.5957C28.3999 22.8576 26.9821 21.4487 25.2329 21.4487C23.4839 21.4487 22.0659 22.8576 22.0659 24.5957C22.0659 26.3339 23.4839 27.7429 25.2329 27.7429Z"/><path fill="#04E061" d="M17.1433 17.3047C18.2257 17.3047 19.103 16.4329 19.103 15.3573C19.103 14.2816 18.2257 13.4098 17.1433 13.4098C16.0609 13.4098 15.1835 14.2816 15.1835 15.3573C15.1835 16.4329 16.0609 17.3047 17.1433 17.3047Z"/><path fill="#965EEB" d="M17.1433 17.3047C18.2257 17.3047 19.103 16.4329 19.103 15.3573C19.103 14.2816 18.2257 13.4098 17.1433 13.4098C16.0609 13.4098 15.1835 14.2816 15.1835 15.3573C15.1835 16.4329 16.0609 17.3047 17.1433 17.3047Z"/><path fill="#04E061" d="M24.0027 20.769C26.3561 20.769 28.2639 18.8731 28.2639 16.5345C28.2639 14.196 26.3561 12.3 24.0027 12.3C21.6493 12.3 19.7415 14.196 19.7415 16.5345C19.7415 18.8731 21.6493 20.769 24.0027 20.769Z"/><path fill="#0AF" d="M24.0027 20.769C26.3561 20.769 28.2639 18.8731 28.2639 16.5345C28.2639 14.196 26.3561 12.3 24.0027 12.3C21.6493 12.3 19.7415 14.196 19.7415 16.5345C19.7415 18.8731 21.6493 20.769 24.0027 20.769Z"/></svg>

<svg xmlns="http://www.w3.org/2000/svg" fill="none" viewBox="0 0 40 40" focusable="false"><path fill="none" d="M0 0h40v40H0z"/><path fill="#F4F5F6" d="M1 12.4c0-2.25 0-3.37.43-4.22a4 4 0 0 1 1.75-1.75C4.03 6 5.15 6 7.4 6h25.19c2.25 0 3.37 0 4.22.43a4 4 0 0 1 1.75 1.75c.44.85.44 1.97.44 4.22v15.2c0 2.24 0 3.36-.44 4.21a4 4 0 0 1-1.75 1.75c-.85.44-1.97.44-4.22.44H7.4c-2.25 0-3.37 0-4.22-.44a4 4 0 0 1-1.75-1.75C1 30.96 1 29.84 1 27.6z"/><path fill="#04E061" d="M16.14 28.4c2.89 0 5.24-2.34 5.24-5.21 0-2.88-2.35-5.21-5.24-5.21-2.9 0-5.25 2.33-5.25 5.21 0 2.87 2.35 5.21 5.25 5.21"/><path fill="#FF4053" d="M25.23 27.74c1.75 0 3.16-1.41 3.16-3.15s-1.41-3.15-3.16-3.15-3.17 1.41-3.17 3.15 1.42 3.15 3.17 3.15"/><path fill="#965EEB" d="M17.14 17.3c1.08 0 1.96-.87 1.96-1.95a1.961 1.961 0 0 0-3.92 0c0 1.08.88 1.95 1.96 1.95"/><path fill="#0AF" d="M24 20.76c2.35 0 4.26-1.89 4.26-4.23S26.35 12.3 24 12.3c-2.36 0-4.26 1.89-4.26 4.23s1.9 4.23 4.26 4.23"/></svg>
